client/public/assets/icons/standard/entitlement_process.svg

<?xml version="1.0"?><svg xmlns="http://www.w3.org/2000/svg" width="100" height="100" viewBox="0 0 100 100"><title></title><path fill="#fff" d="m56 79.6v-16.5l9.4-10.4h13.3v20c-0.1 3.8-3.1 6.8-6.9 6.9h-15.8z m-6 0h-14.8c-3.7 0-6.9-2.3-6.9-6.9h-2.3c-2.5 0-4.6-2-4.6-4.5v-0.1c0-2.5 2.1-4.6 4.6-4.6h2.3v-9.3h-2.3c-2.5 0-4.6-2.1-4.6-4.6 0-2.5 2.1-4.6 4.6-4.6h2.3v-9.3h-2.3c-2.5 0-4.6-2-4.6-4.5v-0.1c0-2.5 2-4.6 4.5-4.7h2.4c0.2-3.7 3.2-6.7 6.9-6.9h36.6c3.8 0.1 6.8 3.1 6.9 6.9v20.2h-13.7l-10.7-11.8c-0.8-0.8-2.2-0.8-3 0l-12.3 13.5c-0.7 0.8-0.7 2 0 2.8l10.8 11.9s0.1 16.6 0.2 16.6z"></path></svg>

<?xml version="1.0" encoding="utf-8"?>
<!-- Generator: Adobe Illustrator 21.0.2, SVG Export Plug-In . SVG Version: 6.00 Build 0)  -->
<svg version="1.1" id="Layer_1" xmlns="http://www.w3.org/2000/svg" xmlns:xlink="http://www.w3.org/1999/xlink" x="0px" y="0px"
	 width="100px" height="100px" viewBox="0 0 100 100" enable-background="new 0 0 100 100" xml:space="preserve">
<title>Entitlement Process</title>
<path fill="#FFFFFF" d="M56,79.6V63.1l9.4-10.4h13.3v20c-0.1,3.8-3.1,6.8-6.9,6.9H56z"/>
<path fill="#FFFFFF" d="M50,79.6H35.2c-3.7,0-6.9-2.3-6.9-6.9H26c-2.5,0-4.6-2-4.6-4.5c0,0,0-0.1,0-0.1c0-2.5,2.1-4.6,4.6-4.6h2.3
	v-9.3H26c-2.5,0-4.6-2.1-4.6-4.6c0-2.5,2.1-4.6,4.6-4.6h2.3v-9.3H26c-2.5,0-4.6-2-4.6-4.5c0,0,0-0.1,0-0.1c0-2.5,2-4.6,4.5-4.7
	c0,0,0.1,0,0.1,0h2.3c0.2-3.7,3.2-6.7,6.9-6.9h36.6c3.8,0.1,6.8,3.1,6.9,6.9v20.2H65L54.3,34.8c-0.8-0.8-2.2-0.8-3,0L39,48.3
	c-0.7,0.8-0.7,2,0,2.8L49.8,63C49.8,63,49.9,79.6,50,79.6z"/>
</svg>
